briefcase-off.svg

<svg fill="currentColor" viewBox="0 0 24 24"><path d="m22.11 21.46-1.27 1.27L19.11 21H4a2 2 0 0 1-2-2V8c0-1.11.89-2 2-2h.11l-3-3 1.28-1.27zM22 18.8 8 4.8V4c0-1.11.89-2 2-2h4a2 2 0 0 1 2 2v2h4a2 2 0 0 1 2 2zM14 4h-4v2h4z"/></svg>

<svg  viewBox="0 0 24 24" fill="currentColor"><path  d="M22.11 21.46L20.84 22.73L19.11 21H4C2.89 21 2 20.1 2 19V8C2 6.89 2.89 6 4 6H4.11L1.11 3L2.39 1.73L22.11 21.46M22 18.8L8 4.8V4C8 2.89 8.89 2 10 2H14C15.11 2 16 2.9 16 4V6H20C21.11 6 22 6.9 22 8V18.8M14 4H10V6H14V4Z"/></svg>
